X: 42988
T: Willie Taylor's Fiddle
R: reel
M: 4/4
K: Gmajor
BA|G2 FG EGDG|GBdg edcB|cBce dBGA|B2A2 A2BA|
G2 FG EGDG|GBdg edBd|cBce dBcA|B2G2 G2:|
Bc|dgfg edBG|Acea fdef|g2fg egdB|B2A2 A2|
[1 Bc|dgfg edBG|Acea fdef|g2fg dBcA|B2G2G2:|
[2 BA|G2FG EGDG|GBdg edcB|cBce dBcA|B2G2G2||

